X: 09076
T: MARY ETTER'S JIG
C: Bob McQuillen 28 Sept 92
B: Bob's Note Book 9 #76
%R: jig
Z: 2018 John Chambers <jc:trillian.mit.edu>
M: 6/8
L: 1/8
K: G
E \
| DEG B2d | edB d2e | dBG ABA | GED E2G |
| DEG B2d | edB d2e | ged BGB | AGG G2 :|
|: A \
| Bde g2a | bag e2g | deg aga | bag e2d |
| ede g2e | ded B2A | GAB ded | BGG G2 :|
%%begintext align
%% Mary Etter has always been
%% so nice to me at Neffa each year that I decided to try
%% and pay her back with a tune. If the tune's no good,
%% then it just goes to prove that the road to hell is paved
%% with good intentions~ But I did try, and in any
%% case, thanks, Mary for all your help to me -
%% love, Bob
%%endtext

%%sep 1 1 500

%%sep 1 1 500

